assets/img/braze_icons/channel-in-app-messages.svg

<svg fill="none" height="24" viewBox="0 0 24 24" width="24" xmlns="http://www.w3.org/2000/svg"><path clip-rule="evenodd" d="m8.16146 1h7.67704c.5272-.000015.982-.000029 1.3565.03057.3954.0323.7886.10362 1.167.29641.5645.28762 1.0234.74657 1.311 1.31105.1928.37838.2641.7716.2964 1.16695.0306.37454.0306.82938.0306 1.35648v13.67714c0 .5271 0 .9819-.0306 1.3564-.0323.3954-.1036.7886-.2964 1.167-.2876.5645-.7465 1.0234-1.311 1.311-.3784.1928-.7716.2641-1.167.2964-.3745.0306-.8293.0306-1.3564.0306h-7.67716c-.52714 0-.9819 0-1.35646-.0306-.39535-.0323-.78857-.1036-1.16695-.2964-.56448-.2876-1.02343-.7465-1.31105-1.311-.19279-.3784-.26411-.7716-.29641-1.167-.0306-.3745-.03059-.8293-.03057-1.3564v-13.67718c-.00002-.52712-.00003-.98189.03057-1.35644.0323-.39535.10362-.78857.29641-1.16695.28762-.56448.74657-1.02343 1.31105-1.31105.37838-.19279.7716-.26411 1.16695-.29641.37455-.030599.82936-.030585 1.35648-.03057zm2.33854 16.5c0-.8284.6716-1.5 1.5-1.5s1.5.6716 1.5 1.5-.6716 1.5-1.5 1.5-1.5-.6716-1.5-1.5zm-2.5-12.5c-.55228 0-1 .44772-1 1 0 .55229.44772 1 1 1h8c.5523 0 1-.44771 1-1 0-.55228-.4477-1-1-1zm0 3.5c-.55228 0-1 .44772-1 1 0 .5523.44772 1 1 1h8c.5523 0 1-.4477 1-1 0-.55228-.4477-1-1-1z" fill="#801ed7" fill-rule="evenodd"/></svg>

<svg width="24" height="24" viewBox="0 0 24 24" fill="none" xmlns="http://www.w3.org/2000/svg">
<path fill-rule="evenodd" clip-rule="evenodd" d="M8.16146 1H15.8385C16.3657 0.999985 16.8205 0.999971 17.195 1.03057C17.5904 1.06287 17.9836 1.13419 18.362 1.32698C18.9265 1.6146 19.3854 2.07355 19.673 2.63803C19.8658 3.01641 19.9371 3.40963 19.9694 3.80498C20 4.17952 20 4.63436 20 5.16146V18.8386C20 19.3657 20 19.8205 19.9694 20.195C19.9371 20.5904 19.8658 20.9836 19.673 21.362C19.3854 21.9265 18.9265 22.3854 18.362 22.673C17.9836 22.8658 17.5904 22.9371 17.195 22.9694C16.8205 23 16.3657 23 15.8386 23H8.16144C7.6343 23 7.17954 23 6.80498 22.9694C6.40963 22.9371 6.01641 22.8658 5.63803 22.673C5.07355 22.3854 4.6146 21.9265 4.32698 21.362C4.13419 20.9836 4.06287 20.5904 4.03057 20.195C3.99997 19.8205 3.99998 19.3657 4 18.8386V5.16142C3.99998 4.6343 3.99997 4.17953 4.03057 3.80498C4.06287 3.40963 4.13419 3.01641 4.32698 2.63803C4.6146 2.07355 5.07355 1.6146 5.63803 1.32698C6.01641 1.13419 6.40963 1.06287 6.80498 1.03057C7.17953 0.999971 7.63434 0.999985 8.16146 1ZM10.5 17.5C10.5 16.6716 11.1716 16 12 16C12.8284 16 13.5 16.6716 13.5 17.5C13.5 18.3284 12.8284 19 12 19C11.1716 19 10.5 18.3284 10.5 17.5ZM8 5C7.44772 5 7 5.44772 7 6C7 6.55229 7.44772 7 8 7H16C16.5523 7 17 6.55229 17 6C17 5.44772 16.5523 5 16 5H8ZM8 8.5C7.44772 8.5 7 8.94772 7 9.5C7 10.0523 7.44772 10.5 8 10.5H16C16.5523 10.5 17 10.0523 17 9.5C17 8.94772 16.5523 8.5 16 8.5H8Z" fill="#801ED7"/>
</svg>
